X:1
T:Title
%%score { ( 1 4 ) | ( 2 3 ) }
L:1/8
Q:1/4=108
M:4/4
K:D
V:1 treble nm="Grand Piano"
V:4 treble 
V:2 bass 
V:3 bass 
V:1
 DEFG A2 B2 | A4 F4 | [Fd]2 [A,FA]2 [A,DF]2[K:bass] [F,D]2 | [A,CE]6 z2 | DEFG A2 B2 | A4 [Fd]4 | %6
w: Howard~Clare * * * * *||||||
 c3 c B2 B2 | [CA]6 z2 | [Fd]3 d [Fc]2 [FB]2 | [FA]4 [DF]4 | [CE]3 F [A,CG]2 [CA]2 | %11
w: |||||
 [DF]4- [A,DF]2 z2 | DEFG A2 B2 | A4 [Fd]4 | e2 B2 c2 [GA]2 | [Fd]6 z2 |] %16
w: |||||
V:2
 D,E,F,G, A,2 B,2 | A,4 F,4 | [D,A,]2 D,2 D,2 D,2 | A,,6 z2 | D,E,F,G, A,2 B,2 | A,4 [D,A,]4 | %6
 [E,A,E]3 [E,A,E] [E,^G,D]2 [E,G,D]2 | [A,,A,]6 z2 | [D,A,]2 z F [D,A,]2 A,,2 | D,2 A,,2 D,2 A,,2 | %10
 E,2 z C E,2 A,,2 | D,2 A,,2 D,2 z2 | D,E,F,G, A,2 B,2 | A,4 [D,A,]4 | %14
 [G,B,G]2 [G,B,G]2 [A,G]2[K:bass] [A,,A,]2 | [D,A,]6 z2 |] %16
V:3
 x8 | x8 | x8 | x8 | x8 | x8 | x8 | x8 | z2 A,,2 z4 | x8 | z2 A,,2 z4 | x8 | x8 | x8 | %14
 x6[K:bass] x2 | x8 |] %16
V:4
 x8 | x8 | x6[K:bass] x2 | x8 | x8 | x8 | x8 | x8 | x8 | A,2 z2 A,2 z2 | A,2 z2 z4 | A,2 z2 z4 | %12
 x8 | x8 | x8 | x8 |] %16

